X:167
T:Highlanders Quadrilles #5. Le4.167, The
Q:3/8=100
L:1/8
B:L.Leadley MS#4 c1850
Z:vmp.Mike Hicken 2016 www.village-music-project.org.uk
M:6/8
K:C
G!segno!|]g2e c2e|G3- GAB|cde fed|ec'g fed|g2e c2e|G3- GAB|
cde fde|c2!f!z[Gec']z !fermata!|]!f!c|!>(!c'3- !>)!c'ba|(g3 e)z e|f2e def|eag g2c|!>(!c'3- !>)!c'ba|
(g3 e)z e|f2e def|e3 z2||G|g2e c2e|G3- GAB|cde fed|ec'g fed|
g2e c2e|G3- GAB|cde fde|c2!f!z [Gec']z2|]!p!e|(^fed) d'2f|(a3 b)z d|
(^fed) d'2f|(g3 b)z d|(^fed) d'2f|gbg ec'a|gbg ^faf|ga^f ga^f "_D.C."|]

